X: 1432
T: Nağmemiz Bu Beytimizde
C: Ahmet Avni Konuk
O: Turkey
F: http://compmusic.upf.edu/node/140
N: rastmaye--kupe--devrirevanihindi--nagmemiz_bu--ahmet_avni_konuk
N: makam= rastmaye
N: form= kupe
N: usul= devrirevanihindi = 14/8
M: 14/8
L: 1/16
K: C _1/4B ^f  
Q: 1/4=102
%%MIDI tuningsystem comma53
d4 cBB3AAc BAA6 z8  | g4 =fee2 eddf edc2 d8-d2z2  | 
w:  Nağ me *  miz  *  *  *  *  *  bu   |  bey ti *  miz *  *  *  *  *  *  de   | 
G4 d2d3cB2 e2d4cB dcBA G2z2  | BcB2 c2d2 cB=f2 edd2 c2cB B6z2  | 
w:  bir  la tîf  *  *  *  Rast   |  Mâ *  *  *  *  *  *  ye *  *  dir    | 
g4 {a}g^3/4fag gfg2 _7/8b2a2 g2f2 f_3/4eed d2z2  | \
w:  İh *  ti *  ya *  *  *  *  *  cı   | 
d4 c2d3=fe2 d2d2 c2{d}c_2/4B B/A/B/c/BA A4  | 
w:  mec li sin  *  *  *  ka  | 
G4 _2/4B2A3cB2 d2c4e2 d/c/d/e/dc BAG2  | \
w:  nun  i le  *  *  *  bir   | 
A_7/8BAB AGAc _2/4BAAG GFG2 F2AG G6z2  | 
w:  nâ *  *  *  *  *  *  *  *  *  ye *  *  *  dir    | 
|


